X: 24876
T: Magic Slipper, The
R: polka
M: 2/4
K: Gmajor
E|:DB DB|AG E/F/G|DG AB|dc c2|
Ec Ec|BA EF|1 AG F/G/F/E/|Dd d2:|2 AG F/A/F/E/|DC B,C|
|:DG G2|GF F2|EF CE|ED D2|
B,D GA/G/|FE c2|BA EF|AG G2:|

